icons/svg/drag-vertical.svg

﻿<?xml version="1.0" encoding="utf-8"?>
<!DOCTYPE svg PUBLIC "-//W3C//DTD SVG 1.1//EN" "http://www.w3.org/Graphics/SVG/1.1/DTD/svg11.dtd">
<svg xmlns="http://www.w3.org/2000/svg" xmlns:xlink="http://www.w3.org/1999/xlink" version="1.1" baseProfile="full" width="24" height="24" viewBox="0 0 24.00 24.00" enable-background="new 0 0 24.00 24.00" xml:space="preserve">
	<path fill="#000000" fill-opacity="1" stroke-width="0.2" stroke-linejoin="round" d="M 9,3L 11,3L 11,5L 9,5L 9,3 Z M 13,3.00001L 15,3.00001L 15,5.00001L 13,5.00001L 13,3.00001 Z M 9,7.00001L 11,7.00001L 11,9.00001L 9,9.00001L 9,7.00001 Z M 13,7.00001L 15,7.00001L 15,9.00001L 13,9.00001L 13,7.00001 Z M 9,11L 11,11L 11,13L 9,13L 9,11 Z M 13,11L 15,11L 15,13L 13,13L 13,11 Z M 9,15L 11,15L 11,17L 9,17L 9,15 Z M 13,15L 15,15L 15,17L 13,17L 13,15 Z M 9,19L 11,19L 11,21L 9,21L 9,19 Z M 13,19L 15,19L 15,21L 13,21L 13,19 Z "/>
</svg>

<svg xmlns="http://www.w3.org/2000/svg" version="1.1" baseProfile="full" width="24" height="24" viewBox="0 0 24.00 24.00" xml:space="preserve"><path fill="#000" fill-opacity="1" stroke-width=".2" stroke-linejoin="round" d="M9 3h2v2H9V3zm4 0h2v2h-2V3zM9 7h2v2H9V7zm4 0h2v2h-2V7zm-4 4h2v2H9v-2zm4 0h2v2h-2v-2zm-4 4h2v2H9v-2zm4 0h2v2h-2v-2zm-4 4h2v2H9v-2zm4 0h2v2h-2v-2z"/></svg>
